X: 128003
M: 2/4
L: 1/16
K: Am
[|\
vABcd e2e2 | e^def edcB |\
vABcd e^def | e^def edcB |\
|:\
vA2a2A2a2 | gece g4 |\
vA2a2A2a2 | gece g4 |\
vA2a2A2a2 | gecd e2(cd) |\
ecdB ABcd | edcB "_D.C."A4 :|


